packages/kaspersky-hexa-ui-icons/src/iconsSVGs/48/PasswordShow.svg

<svg xmlns="http://www.w3.org/2000/svg" width="48" height="48" fill="none" viewBox="0 0 48 48"><path fill="currentColor" fill-rule="evenodd" d="M24 14c-5.5228 0-10 4.4772-10 10s4.4772 10 10 10h.05c5.5228-.0138 9.9888-4.5022 9.975-10.025S29.5228 13.9862 24 14m5.69 15.6A8 8 0 0 1 24 32c-4.4183 0-8-3.5817-8-8a7.86 7.86 0 0 1 2.32-5.64A8 8 0 0 1 24 16c4.4183 0 8 3.5817 8 8a7.89 7.89 0 0 1-2.31 5.6M27 24h2c0 2.7614-2.2386 5-5 5s-5-2.2386-5-5 2.2386-5 5-5v2a3 3 0 0 0-2.7584 4.1496A3 3 0 0 0 24 27c1.6569 0 3-1.3431 3-3m20.81-.52C45 17.48 36.12 8 24 8h-.11c-12.1.06-20.97 9.65-23.7 15.69l-.19.42.19.42C3 30.52 11.89 40 24 40h.11c12.13-.06 21-9.65 23.73-15.69l.19-.42zM24.07 38H24C12.74 38 4.66 28.91 2.21 24.1 4.62 19.25 12.65 10.05 23.93 10H24c11.24 0 19.31 9.09 21.76 13.9C43.38 28.75 35.35 38 24.07 38" clip-rule="evenodd"/></svg>

<svg width="48" height="48" viewBox="0 0 48 48" fill="none" xmlns="http://www.w3.org/2000/svg">
<path fill-rule="evenodd" clip-rule="evenodd" d="M24 14C18.4772 14 14 18.4772 14 24C14 29.5228 18.4772 34 24 34H24.05C29.5728 33.9862 34.0388 29.4978 34.025 23.975C34.0112 18.4522 29.5228 13.9862 24 14ZM29.69 29.6C28.191 31.1293 26.1414 31.9938 24 32C19.5817 32 16 28.4183 16 24C15.9828 21.8844 16.8191 19.8511 18.32 18.36C19.8232 16.8478 21.8678 15.9983 24 16C28.4183 16 32 19.5817 32 24C32.0058 26.0997 31.1745 28.1151 29.69 29.6ZM27 24H29C29 26.7614 26.7614 29 24 29C21.2386 29 19 26.7614 19 24C19 21.2386 21.2386 19 24 19V21C23.2032 21.0033 22.4404 21.3236 21.88 21.89C21.0302 22.7489 20.7786 24.0337 21.2416 25.1496C21.7045 26.2656 22.7918 26.9949 24 27C25.6569 27 27 25.6569 27 24ZM47.81 23.48C45 17.48 36.12 8 24 8H23.89C11.79 8.06 2.92 17.65 0.19 23.69L0 24.11L0.19 24.53C3 30.52 11.89 40 24 40H24.11C36.24 39.94 45.11 30.35 47.84 24.31L48.03 23.89L47.81 23.48ZM24.07 38H24C12.74 38 4.66 28.91 2.21 24.1C4.62 19.25 12.65 10.05 23.93 10H24C35.24 10 43.31 19.09 45.76 23.9C43.38 28.75 35.35 38 24.07 38Z"  fill="currentColor"/>
</svg>
